X:292
T:B292-  Long Cold Nights
Q:1/4=120
L:1/4
M:3/4
K:Dmixolydian
G2B|d2g|d2g|(d/ B3/2) (A/G/)|\
A3/2 (c/d)|e2g|(g/a/ b) (a/g/)|e2g|\
G2B|d2g|d2g|(d/ B3/2)g|\
a2(g/e/)|g2(d/B/)|A2G|e2d||\
gG3/2 (A/4G/4)|gG(A/B/)|g3/2 d/ (g/d/)|B2(A/G/)|\
aAB|aAg|(g/a/b) (a/g/)|e2g|\
G3/2 (A/ B)|d2g|d2g|(d/ B3/2)g|\
(g/a/)b(a/g/)|e2(d/B/)|A2G|e2d|]
